app/dist/common/images/graphic-packaging.svg

<svg height="18" width="18" xmlns="http://www.w3.org/2000/svg"><path d="m0 0h18v18h-18z" fill="#006f5b"/><path d="m11.209 4.436a3.172 3.172 0 0 0 -1.209-.434v2.005zm-3.209 6.171-3.606-3.607c-.18.38-.315.79-.394 1.222l4 4.188zm0-3.161-2.218-2.446a4.87 4.87 0 0 0 -.782.866l3 3.414zm.008-3.446a3.073 3.073 0 0 0 -1.195.429l1.195 1.571zm1.992 10c2.115-.223 3.792-1.899 4-4.002l-4 3.969zm-6-4.002c.2 2.107 1.881 3.787 4 4.002v-.031zm6 2.44 4-4.204a4.954 4.954 0 0 0 -.392-1.234l-3.608 3.625zm0-3.124 3-3.436a4.867 4.867 0 0 0 -.783-.878l-2.217 2.464z" fill="#fff"/></svg>

<!-- by TradingView --><svg width="18" height="18" xmlns="http://www.w3.org/2000/svg"><path fill="#006F5B" d="M0 0h18v18H0z"/><path d="M11.209 4.436A3.172 3.172 0 0010 4.002v2.005l1.209-1.571zM8 10.607L4.394 7c-.18.38-.315.79-.394 1.222l4 4.188v-1.803zM8 7.446L5.782 5A4.87 4.87 0 005 5.866L8 9.28V7.446zM8.008 4a3.073 3.073 0 00-1.195.429L8.008 6V4zM10 14c2.115-.223 3.792-1.899 4-4.002l-4 3.969V14zM4 9.998c.2 2.107 1.881 3.787 4 4.002v-.031L4 9.998zM10 12.438l4-4.204A4.954 4.954 0 0013.608 7L10 10.625v1.813zM10 9.314l3-3.436A4.867 4.867 0 0012.217 5L10 7.464v1.85z" fill="#fff"/></svg>
